**harm	**harte	**timestamp	**phrase	**leadinstrument	**kern
*M4/4	*M4/4	*	*	*	*
*C:	*C:	*	*	*	*C:
1r;	N	0	.	r	1r;
=1	=1	=1	=1	=1	=1
*>C_intro	*>C_intro	*>C_intro	*>C_intro	*>C_intro	*>C_intro
1I	C:5	0.045	newline	.	1C 1e 1g
=2	=2	=2	=2	=2	=2
1I	C:5	3.876	.	.	1C 1e 1g
=3	=3	=3	=3	=3	=3
1I	C:5	7.707	.	.	1C 1e 1g
=4	=4	=4	=4	=4	=4
1I	C:5	11.538	.	.	1C 1e 1g
=5	=5	=5	=5	=5	=5
*>A_verse	*>A_verse	*>A_verse	*>A_verse	*>A_verse	*>A_verse
1I	C:maj	15.369	newline	.	1C 1e 1g
=6	=6	=6	=6	=6	=6
1Vb	G:maj/3	19.168	.	.	1g 1B 1dd
=7	=7	=7	=7	=7	=7
2.IVb	F:maj/3	22.968	.	.	2f 2A 2cc
4Vb	G:maj/3	25.817	.	.	4g 4B 4dd
=8	=8	=8	=8	=8	=8
1I	C:maj	26.767	.	.	1C 1e 1g
=9	=9	=9	=9	=9	=9
1I	C:maj	30.567	newline	.	1C 1e 1g
=10	=10	=10	=10	=10	=10
1Vb	G:maj/3	34.413	.	.	1g 1B 1dd
=11	=11	=11	=11	=11	=11
2.IVb	F:maj/3	38.259	.	.	2f 2A 2cc
4Vb	G:maj/3	41.144	.	.	4g 4B 4dd
=12	=12	=12	=12	=12	=12
1I	C:maj	42.105	.	.	1C 1e 1g
=13	=13	=13	=13	=13	=13
1Id	C:maj/7	45.951	newline	.	1c 1e 1g
=14	=14	=14	=14	=14	=14
1IVb	F:sus2/3	49.941	.	.	1f 1A 1cc
=15	=15	=15	=15	=15	=15
1IVb	F:maj/3	53.931	.	.	1f 1A 1cc
=16	=16	=16	=16	=16	=16
2IVe	F:maj/2	57.921	.	.	2F 2a 2cc
2V7	G:7	59.915	.	.	2G 2b 2dd 2ff
=17	=17	=17	=17	=17	=17
1I	C:maj	61.91	newline	.	1C 1e 1g
=18	=18	=18	=18	=18	=18
1Vb	G:maj/3	65.711	.	.	1g 1B 1dd
=19	=19	=19	=19	=19	=19
2.IVb	F:maj/3	69.513	.	.	2f 2A 2cc
4V	G:maj	72.364	.	.	4G 4b 4dd
=20	=20	=20	=20	=20	=20
1I	C:maj(9)	73.314	.	.	1C 1e 1g
=21	=21	=21	=21	=21	=21
1I	C:maj(9)	77.115	.	.	1C 1e 1g
=22	=22	=22	=22	=22	=22
*>A_verse	*>A_verse	*>A_verse	*>A_verse	*>A_verse	*>A_verse
1I	C:maj(9)	80.916	newline	.	1C 1e 1g
=23	=23	=23	=23	=23	=23
1V	G:maj(9)	84.565	.	.	1G 1b 1dd
=24	=24	=24	=24	=24	=24
2.IV	F:maj(9)	88.214	.	.	2F 2a 2cc
4V	G:maj	90.951	.	.	4G 4b 4dd
=25	=25	=25	=25	=25	=25
1I	C:maj(9)	91.863	.	.	1C 1e 1g
=26	=26	=26	=26	=26	=26
1I	C:maj(9)	95.512	newline	.	1C 1e 1g
=27	=27	=27	=27	=27	=27
1V	G:maj(9)	99.154	.	.	1G 1b 1dd
=28	=28	=28	=28	=28	=28
2.IV	F:maj(9)	102.796	.	.	2F 2a 2cc
4V	G:maj	105.528	.	.	4G 4b 4dd
=29	=29	=29	=29	=29	=29
1I	C:maj(9)	106.438	.	.	1C 1e 1g
=30	=30	=30	=30	=30	=30
1iiic	E:min/5	110.08	newline	.	1e 1g 1B
=31	=31	=31	=31	=31	=31
2.vi	A:min(11)	113.807	.	.	2A 2cc 2ee
4VId	A:maj(11)/b7	116.602	.	.	4a 4cc# 4ee
=32	=32	=32	=32	=32	=32
1IV	F:maj(9)	117.534	.	.	1F 1a 1cc
=33	=33	=33	=33	=33	=33
1V	G:maj	121.26	.	.	1G 1b 1dd
=34	=34	=34	=34	=34	=34
1I	C:maj(9)	124.987	newline	.	1C 1e 1g
=35	=35	=35	=35	=35	=35
1V	G:maj(9)	128.62	.	.	1G 1b 1dd
=36	=36	=36	=36	=36	=36
2.IV	F:maj(9)	132.253	.	.	2F 2a 2cc
4V	G:maj	134.977	.	.	4G 4b 4dd
=37	=37	=37	=37	=37	=37
1I	C:maj	135.885	.	.	1C 1e 1g
=38	=38	=38	=38	=38	=38
1I	C:maj	139.518	.	.	1C 1e 1g
=39	=39	=39	=39	=39	=39
*>A_verse	*>A_verse	*>A_verse	*>A_verse	*>A_verse	*>A_verse
1I	C:maj	143.151	newline	.	1C 1e 1g
=40	=40	=40	=40	=40	=40
1V	G:maj	146.692	.	.	1G 1b 1dd
=41	=41	=41	=41	=41	=41
2.IV	F:maj	150.233	.	.	2F 2a 2cc
4V	G:maj	152.888	.	.	4G 4b 4dd
=42	=42	=42	=42	=42	=42
1I	C:maj	153.773	.	.	1C 1e 1g
=43	=43	=43	=43	=43	=43
1I	C:maj	157.314	newline	.	1C 1e 1g
=44	=44	=44	=44	=44	=44
1V	G:maj	160.853	.	.	1G 1b 1dd
=45	=45	=45	=45	=45	=45
2.IV	F:maj	164.392	.	.	2F 2a 2cc
4V	G:maj	167.046	.	.	4G 4b 4dd
=46	=46	=46	=46	=46	=46
1I	C:maj	167.931	.	.	1C 1e 1g
=47	=47	=47	=47	=47	=47
1iii	E:min	171.469	newline	.	1E 1g 1b
=48	=48	=48	=48	=48	=48
1vi	A:min(11)	175.306	.	.	1A 1cc 1ee
=49	=49	=49	=49	=49	=49
1IV	F:maj(9)	179.143	.	.	1F 1a 1cc
=50	=50	=50	=50	=50	=50
1V	G:maj(9)	182.98	.	.	1G 1b 1dd
=51	=51	=51	=51	=51	=51
1I	C:maj(9)	186.816	newline	.	1C 1e 1g
=52	=52	=52	=52	=52	=52
1V	G:maj(9)	190.687	.	.	1G 1b 1dd
=53	=53	=53	=53	=53	=53
2.IV	F:maj(9)	194.558	.	.	2F 2a 2cc
4V	G:maj	197.462	.	.	4G 4b 4dd
=54	=54	=54	=54	=54	=54
1I	C:maj(9)	198.429	.	.	1C 1e 1g
=55	=55	=55	=55	=55	=55
1I	C:maj(9)	202.3	.	.	1C 1e 1g
=56	=56	=56	=56	=56	=56
1I	C:maj(9)	206.171	newline	.	1C 1e 1g
=57	=57	=57	=57	=57	=57
1I	C:maj	210.044	.	.	1C 1e 1g
1r;	N	219.726	.	r	1r;
1r;	N	220.691	.	r	1r;
*-	*-	*-	*-	*-	*-
!!!OTL: The Rose
!!!COC: Bette Midler
!!!BillboardChartDate: 1980/08/02, 1980/07/05
!!!BillboardPeak: 3, 3
!!!BillboardWeeksOnChart: 25, 25
!!!SampleTargetRank: 15,  3
!!!SampleActualRank: 16,  3
!!!SampleID#: 6, 1271
!!!RDF**harmony: **recip + pitch class of root + harmonic quality
!!!RDF**harte: Chris Harte's syntax, used by MIREX
!!!RDF**phrase: newline = linebreak in original McGill transcription
!!!RDF**timestamp: McGill audio timestamp in seconds
!!!RDF**leadinstrument: original McGill primary instrumentation annotation
!!!RDT: 2017/01/12/
!!!ENC: Nathaniel Condit-Schultz
!!!EST: Awating manual error checking and editing.
